!!!!SEGMENT: pl-kk--kk-i-10--001-003_anonim--aliud-de-passione-domini-agnus-dei.krn
!!!cenid: 16xx:1183
!!!COM: Anonim
!!!COM-rism: pe30004985
!!!CDT:
!!!CNT:
!!!OTL: Aliud de Passione Domini – Agnus Dei
!!!PDT:
!!!AGN: Sacred; Mass
!!!SMS-siglum: PL-Kk
!!!SMS-shelfmark: Kk.I.10
!!!NIFC-rismID: 1001151829
!!!URL-scan: http://repozytorium.nifc.pl/skany/pl-kk-nut--i-10
!!!ONB-nifc: UWAGA: części Mszy: 1. Kyrie, 2. Sanctus 3. Agnus Dei, 4. Deo gratias. A (skan 0004-0006), T (skan 0055-0057), B (skan 0103-0105).
!!!SMS-variant:
!!!SMS-altvar:
**kern	**text	**kern	**text	**kern	**text
*part3	*part3	*part2	*part2	*part1	*part1
*staff3	*staff3	*staff2	*staff2	*staff1	*staff1
*I"[Bassus]	*	*I"[Tenor]	*	*I"[Altus]	*
*I'B	*	*I'T 2	*	*I'T 1	*
*clefF4	*	*clefC4	*	*clefC4	*
*k[b-]	*	*k[b-]	*	*k[b-]	*
*M2/1	*	*M2/1	*	*M2/1	*
*met(C|)	*	*met(C|)	*	*met(C|)	*
*	*	*lig	*	*	*
=1-	=1-	=1-	=1-	=1-	=1-
1F\	A-	1F/	A-	1A\	Ag-
1C/	-gnus	1G/	.	1E/	-nus
*	*	*Xlig	*	*	*
=2-	=2-	=2-	=2-	=2-	=2-
*	*	*lig	*	*	*
2FF/	De-	1A\	.	2F/	De-
1F\	.	.	.	4E/	.
.	.	.	.	4D/	.
.	.	1G/	.	1C/	-i
2E\	.	.	.	.	.
*	*	*Xlig	*	*	*
=3-	=3-	=3-	=3-	=3-	=3-
1F\	-i	1A\	.	2r	.
.	.	.	.	2c\	qui
*	*ij	*	*	*	*
2.BB-/	A-	1B-\	-gnus	1d\	tol-
4BB-/	-gnus	.	.	.	.
=4-	=4-	=4-	=4-	=4-	=4-
*	*	*lig	*	*	*
4FF/	De-	1A\	De-	1c\	.
4GG/	.	.	.	.	.
4AA/	.	.	.	.	.
4BB-/	.	.	.	.	.
1C/	.	1G/	.	1c\	lis
*	*	*Xlig	*	*	*
=5-	=5-	=5-	=5-	=5-	=5-
*	*	*	*	*	*ij
1FF/	-i	1F/	-i	1A\	qui
*	*Xij	*	*	*	*
1FF/	qui	1A\	qui	1c\	tol-
!LO:LB:g=original	!	!	!	!	!
=6-	=6-	=6-	=6-	=6-	=6-
*	*	*lig	*	*	*
2C/	tol-	1G/	tol-	2c\	-lis
*	*	*	*	*	*Xij
2C/	-lis	.	.	2c\	pec-
!	!	!	!	!LO:SIC:v:t=custos c	!
!	!	!	!	!LO:PB:g=original	!
1D\	pec-	1F/	.	1A\	-ca-
*	*	*Xlig	*	*	*
=7-	=7-	=7-	=7-	=7-	=7-
*	*	*lig	*	*	*
2AA/	-ca-	1E/	.	2A/	-ta
2AA/	-ta	.	.	2A/	mun-
1FF/	mun-	1F/	.	1A\	-di
*	*	*Xlig	*	*	*
=8-	=8-	=8-	=8-	=8-	=8-
!	!	!LO:SIC:v:t=custos f	!	!	!
1BB-/	.	1D/	-lis	1B-\	qui
!	!	!LO:LB:g=original	!	!	!
1FF/	-di	1F/	pec-	1A\	tol-
=9-	=9-	=9-	=9-	=9-	=9-
*	*ij	*	*	*	*
2BB-/	qui	1F/	-ca-	2A/	-lis
2FF/	tol-	.	.	2A/	pec-
2C/	-lis	1E/	-ta	2G/	-ca-
2C/	pec-	.	.	2G/	-ta
=10-	=10-	=10-	=10-	=10-	=10-
*	*	*lig	*	*	*
1GG/	-ca-	1G/	mun-	1B-\	mun-
!	!	!LO:TX:a:t=P:problem:	!	!	!
1D\	.	1F#X/	.	2A/	-di
*	*	*	*	*	*ij
.	.	.	.	2A/	mun-
*	*	*Xlig	*	*	*
=11-	=11-	=11-	=11-	=11-	=11-
1GG/	-ta	1G/,	-di	2B-\	.
.	.	.	.	2B-\	-di
*	*	*	*	*	*Xij
1D\	mun-	1F/	mi-	2.A/	mi-
.	.	.	.	4A/	-se-
!LO:LB:g=original	!	!	!	!	!
=12-	=12-	=12-	=12-	=12-	=12-
2GG/	-di	1G/	-ſe-	2B-\	-re-
*	*Xij	*	*	*	*
!	!	!	!	!LO:SIC:v:t=custos f	!
!	!	!	!	!LO:LB:g=original	!
2C/	pec-	.	.	2E/	-re
2FF/	-ca-	1A\	-re-	1F/	no-
2FF/	-ta	.	.	.	.
=13-	=13-	=13-	=13-	=13-	=13-
1BB-/	mun-	1D/	-re	2F/	-bis
*	*	*	*	*	*ij
.	.	.	.	4B-\	mi-
.	.	.	.	4B-\	-se-
*	*	*lig	*	*	*
1C/	-di	1E/	no-	2.G/	-re-
.	.	.	.	4G/	-re
!!linebreak:original
=14-	=14-	=14-	=14-	=14-	=14-
2.D/	mi-	1F/	.	2F/	mi-
.	.	.	.	2A/	-ſe-
4D/	-ſe-	.	.	.	.
*	*	*Xlig	*	*	*
*	*	*lig	*	*	*
2C/	-re-	1G/	.	2c\	-re-
2GG/	-re	.	.	2A/	-re
=15-	=15-	=15-	=15-	=15-	=15-
1C/	no-	1E/	.	2G/	no-
.	.	.	.	2c\	.
*	*	*Xlig	*	*	*
!	!	!	!	!LO:N:vis=2	!
0FF/	-bis	0F/	-bis.	0c\	-bis
!	!	!LO:LB:g=original	!	!	!
*	*	*	*	*	*Xij
=16||-	=16||-	=16||-	=16||-	=16||-	=16||-
*clefF4	*	*clefC4	*	*clefC4	*
*k[b-]	*	*k[b-]	*	*k[b-]	*
*M2/1	*	*M2/1	*	*M2/1	*
*	*	*met(C|)	*	*met(C|)	*
1r	.	1A\	A-	1F/	A-
1C/	A-	1G/	-gnus	1E/	-gnus
=17-	=17-	=17-	=17-	=17-	=17-
*	*	*lig	*	*lig	*
1FF/	-gnus	1F/	De-	1A\	De-
1C/	De-	1E/	.	1G/	.
*	*	*Xlig	*	*Xlig	*
=18-	=18-	=18-	=18-	=18-	=18-
1FF/	-i	1F/	.	1A\	-i
*	*ij	*	*	*	*ij
1BB-/	A-	1D/,	-i	2.B-\	A-
.	.	.	.	4B-\	-gnus
=19-	=19-	=19-	=19-	=19-	=19-
4FF/	-gnus	1F/	qui	1A\	De-
4GG/	.	.	.	.	.
4AA/	.	.	.	.	.
4BB-/	.	.	.	.	.
1C/	De-	1G/	tol-	2E/	-i
*	*	*	*	*	*Xij
.	.	.	.	2E/	qui
=20-	=20-	=20-	=20-	=20-	=20-
2FF/	-i	1A\,	-lis	1F/	tol-
*	*Xij	*	*	*	*
2FF/	qui	.	.	.	.
!LO:SIC:v:t=custos GG	!	!	!	!	!
1BB-/	tol-	1F/	pec-	2D/	-lis
.	.	.	.	2B-\	pec-
!LO:LB:g=original	!	!	!	!	!
=21-	=21-	=21-	=21-	=21-	=21-
2GG/	-lis	1G/	-ca-	2B-\	-ca-
!	!	!	!	!LO:LB:g=original	!
2GG/	pec-	.	.	2B-\	-ta
2C/	-ca-	1G/,	-ta	2c\	mun-
2C/	-ta	.	.	2c\	-di
=22-	=22-	=22-	=22-	=22-	=22-
!	!	!LO:SIC:v:t=custos g	!	!	!
1.F\	mun-	1F/	mun-	2A/	Ag-
.	.	.	.	2F/	-n(us)
!	!	!LO:LB:g=original	!	!	!
.	.	1G/,	-di	1C/	De-
2E\	.	.	.	.	.
=23-	=23-	=23-	=23-	=23-	=23-
2F\	-di	1F/	mi-	2F/	-i
2FF/	qui	.	.	2A/	qui
1C/	tol-	1E/	-ſe-	1G/	tol-
=24-	=24-	=24-	=24-	=24-	=24-
*	*	*lig	*	*	*
1GG/	-lis	1G/	-re-	2B-\	-lis
.	.	.	.	2B-\	pec-
2G\	pec-	1E/	.	1c\	-ca-
2G\	-ca-	.	.	.	.
*	*	*Xlig	*	*	*
=25-	=25-	=25-	=25-	=25-	=25-
1E\	-ta	1C/,	-re	1c\	-ta
*	*	*lig	*	*	*
1F\	mun-	1F/	no-	2A/	mun-
.	.	.	.	2A/	-di
=26-	=26-	=26-	=26-	=26-	=26-
2.C/	-di	1E/	.	2.G/	mi-
!	!	!	!	!LO:LB:g=original	!
4C/	mi-	.	.	4G/	-se-
!	!	!	!	!LO:SIC:v:t=custos c	!
*	*	*Xlig	*	*	*
!LO:SIC:v:t=custos GG	!	!	!	!	!
*	*	*lig	*	*	*
2C/	-ſe-	1G/	.	2c\	-re-
!LO:LB:g=original	!	!	!	!	!
2GG/	-re-	.	.	2d\	-re
=27-	=27-	=27-	=27-	=27-	=27-
2AA/	-re	1A\	.	2A\	no-
2FF/	no-	.	.	2c\	.
*	*	*Xlig	*	*	*
*	*	*lig	*	*	*
0C/	.	1G/	.	0c\	-bis.
=28-	=28-	=28-	=28-	=28-	=28-
.	-bis	1E/	.	.	.
*	*	*Xlig	*	*	*
0FF/;	.	0F/	-bis.	0c\;<	.
!LO:PB:g=original	!	!LO:LB:g=original	!	!	!
=29||-	=29||-	=29||-	=29||-	=29||-	=29||-
*clefF4	*	*	*	*	*
*k[b-]	*	*	*	*	*
*M2/1	*	*M2/1	*	*M2/1	*
*met(c|)	*	*	*	*met(c|)	*
*	*	*lig	*	*	*
2F\	A-	1F/	A-	2A/	A-
2D/	-gnus	.	.	1F/	-gn(us)
2BB-/	De-	1G/	.	.	.
2C/	.	.	.	2E/	De-
*	*	*Xlig	*	*	*
=30-	=30-	=30-	=30-	=30-	=30-
*	*	*lig	*	*	*
2FF/	-i	1A\	.	1F/	-i
*	*ij	*	*	*	*
1F\	A-	.	.	.	.
.	.	1G/	.	2.C/	/Ag-
2E\	.	.	.	.	.
.	.	.	.	4C/	-nus
*	*	*Xlig	*	*	*
=31-	=31-	=31-	=31-	=31-	=31-
!	!	!	!	!LO:SIC:v:t=custos c	!
2F\	.	1A\	-gnus	1F/	De-
2FF/	-gnus	.	.	.	.
!	!	!	!	!LO:LB:g=original	!
1GG/	De-	1B-\	.	2C/	-i/
.	.	.	.	2.G/	Ag-
=32-	=32-	=32-	=32-	=32-	=32-
*	*	*lig	*	*	*
2.AA/	.	1A\	De-	.	.
.	.	.	.	4F/	.
.	.	.	.	1F/	-n(us)
4BB-/	.	.	.	.	.
1C/	.	1G/	.	.	.
.	.	.	.	2E/	de-
*	*	*Xlig	*	*	*
=33-	=33-	=33-	=33-	=33-	=33-
1.FF/	-i	1F/	-i	2F/	-i
.	.	.	.	2A/	qui
.	.	1A\	qui	1c\	tol-
*	*Xij	*	*	*	*
!LO:SIC:v:t=custos C	!	!	!	!	!
2FF/	qui	.	.	.	.
!LO:LB:g=original	!	!	!	!	!
=34-	=34-	=34-	=34-	=34-	=34-
*	*	*lig	*	*	*
1C/	tol-	1G/	tol-	1c\	-lis
2FF/	.	1F/	.	1A\	.
2F\	-lis	.	.	.	.
*	*	*Xlig	*	*	*
=35-	=35-	=35-	=35-	=35-	=35-
*	*	*lig	*	*	*
1C/	pec-	1E/	.	2G/	pec-
.	.	.	.	2G/	-ca-
2AA/	-ca-	1F/	.	(<2A/	-ta
1BB-/	-ta	.	.	2d\)	.
*	*	*Xlig	*	*	*
=36-	=36-	=36-	=36-	=36-	=36-
!	!	!LO:SIC:v:t=custos f	!	!	!
.	.	1D/	-lis	1B-\	mun-
2BB-/	.	.	.	.	.
!	!	!LO:LB:g=original	!	!	!
*	*	*lig	*	*	*
1FF/	mun-	1F/	pec-	1A\	-di
=37-	=37-	=37-	=37-	=37-	=37-
*	*	*	*	*	*ij
1C/	-di	1E/	.	2G/	pec-
.	.	.	.	2G/	-ca-
!	!	!	!	!LO:SIC:v:t=custos b	!
!	!	!	!	!LO:PB:g=original	!
*	*	*Xlig	*	*	*
1GG/	pec-	1G/	-ca-	1B-\	-ta
=38-	=38-	=38-	=38-	=38-	=38-
2C/	-ca-	1G/	-ta	2c\	mun-
2C/	-ta	.	.	2c\	-di
*	*	*	*	*	*Xij
1D\	mun-	1F#X/	mun-	2A\	pec-
.	.	.	.	2A\	-ca-
=39-	=39-	=39-	=39-	=39-	=39-
1GG/	-di	1G/,	-di	1B-\	-ta
2.BB-/	Do	1F/	Do-	1B-\	mun-
4BB-/	na	.	.	.	.
=40-	=40-	=40-	=40-	=40-	=40-
2FF/	no-	1F/	-na	2.A/	-di
!LO:SIC:v:t=custos BB	!	!	!	!	!
2AA/	-bis	.	.	.	.
.	.	.	.	4c\	Do-
!LO:LB:g=original	!	!	!	!	!
2BB-/	pa-	1F/	no-	2B-\	-na
2FF/	-cem	.	.	2A/	no-
=41-	=41-	=41-	=41-	=41-	=41-
*	*ij	*	*	*	*
2.C/	Do-	1E/,	-bis	1G/	-bis
4C/	-na	.	.	.	.
*	*	*lig	*	*	*
2C/	no-	1G/	pa-	2E/	pa-
2GG/	.	.	.	2D/	-cem
=42-	=42-	=42-	=42-	=42-	=42-
*	*	*	*	*	*ij
2AA/	.	1A\	.	1.F/	do-
2FF/	-bis	.	.	.	.
*	*	*Xlig	*	*	*
*	*	*lig	*	*	*
1BB-/	pa-	1D/	.	.	.
.	.	.	.	2F/	-na
=43-	=43-	=43-	=43-	=43-	=43-
1FF/	-cem	1F/	.	2.A/	no-
.	.	.	.	4A/	-bis
!	!	!	!	!LO:SIC:v:t=custos g	!
!	!	!	!	!LO:LB:g=original	!
*	*Xij	*Xlig	*	*	*
*	*	*lig	*	*	*
1C/	Do-	1E/	.	2G/	pa-
.	.	.	.	2G/	-cem
*	*	*	*	*	*Xij
=44-	=44-	=44-	=44-	=44-	=44-
1GG/	-na	1G/	.	2.B-\	Do-
.	.	.	.	4B-\	-na
*	*	*Xlig	*	*	*
2.C/	no-	1E/	-cem.	2G/	no-
.	.	.	.	2G/	-bis
4BB-/	.	.	.	.	.
=45-	=45-	=45-	=45-	=45-	=45-
4AA/	.	0F/	.	1A\	pa-
4GG/	-bis	.	.	.	.
2FF/	.	.	.	.	.
1BB-/	pa-	.	.	1B-\	.
=46-	=46-	=46-	=46-	=46-	=46-
!	!	!	!	!LO:TX:a:t=Tempore Paſsionis	!
0FF/;	-cem.	0F/;;	.	0A\;	-cem.
=-	=-	=-	=-	=-	=-
*-	*-	*-	*-	*-	*-
!!!system-decoration: s1,s2,s3
!!!RDF**kern: > = above
!!!RDF**kern: < = below
!!!EED: Leszek Kubiak
!!!EST: 2021-08-24
!!!ENC: Andrzej Gręziak
!!!END: 2021-06-23
